src/topics/icons/caffe2.svg

<svg height="292" preserveAspectRatio="xMidYMid" viewBox="0 0 255 292" width="255" xmlns="http://www.w3.org/2000/svg"><path d="m202.383739 162.431104c0 45.622785-36.98453 82.607315-82.607316 82.607315-45.6217895 0-82.6063187-36.98453-82.6063187-82.607315v-37.018397h165.2136347z" fill="#fff"/><g fill="#303846"><path d="m214.983023 193.26476h-6.368125c3.36386-9.666242 5.216623-20.03474 5.216623-30.832561v-2.866801h1.151502c9.290708 0 16.848186 7.557478 16.848186 16.848186 0 9.290709-7.557478 16.851176-16.848186 16.851176m-95.207098 40.325478c-39.2367312 0-71.1590347-31.921307-71.1590347-71.158039v-25.571113h124.0454477 18.272622v25.571113c0 18.262662-6.921961 34.936529-18.272622 47.548265-13.035082 14.483424-31.912343 23.609774-52.886413 23.609774m95.207098-97.200311h-1.151502v-10.977121c0-6.323299-5.123985-11.44828-11.448281-11.44828h-165.2136338c-6.3232996 0-11.4482801 5.124981-11.4482801 11.44828v37.019393c0 51.863409 42.1921867 94.055596 94.0545989 94.055596 31.775876 0 59.901012-15.85407 76.936467-40.050553h18.270631c22.069789 0 40.021665-17.954864 40.021665-40.023658 0-22.068793-17.951876-40.023657-40.021665-40.023657"/><path d="m125.71642 60.9408498h-14.411704v-14.4117043c0-4.7484513-3.848965-8.5974163-8.597416-8.5974163-4.7474556 0-8.5964206 3.848965-8.5964206 8.5974163v14.4117043h-14.4117043c-4.7484514 0-8.5974163 3.848965-8.5974163 8.5974163 0 4.7474553 3.8489649 8.5974164 8.5974163 8.5974164h14.4117043v14.4107082c0 4.7484513 3.848965 8.5974163 8.5964206 8.5974163 4.748451 0 8.597416-3.848965 8.597416-8.5974163v-14.4107082h14.411704c4.748452 0 8.598413-3.8499611 8.598413-8.5974164 0-4.7484513-3.849961-8.5974163-8.598413-8.5974163"/><path d="m175.138665 23.0089214h-14.409712v-14.41170428c0-4.74745525-3.849962-8.59741634-8.598413-8.59741634-4.747455 0-8.597416 3.84996109-8.597416 8.59741634v14.41170428h-14.410708c-4.748452 0-8.597417 3.848965-8.597417 8.5974163 0 4.7474553 3.848965 8.5964203 8.597417 8.5964203h14.410708v14.4117043c0 4.7484513 3.849961 8.5974163 8.597416 8.5974163 4.748451 0 8.598413-3.848965 8.598413-8.5974163v-14.4117043h14.409712c4.748451 0 8.598412-3.848965 8.598412-8.5964203 0-4.7484513-3.849961-8.5974163-8.598412-8.5974163"/><path d="m228.827343 291.913612h-217.3788636c-6.32329963 0-11.44828018-5.123984-11.44828018-11.44828 0-6.324295 5.12498055-11.44828 11.44828018-11.44828h217.3788636c6.325292 0 11.44828 5.123985 11.44828 11.44828 0 6.324296-5.122988 11.44828-11.44828 11.44828"/></g></svg>

<?xml version="1.0" encoding="UTF-8"?>
<svg width="255px" height="292px" viewBox="0 0 255 292" version="1.1" xmlns="http://www.w3.org/2000/svg" xmlns:xlink="http://www.w3.org/1999/xlink" preserveAspectRatio="xMidYMid">
	<g>
		<path d="M202.383739,162.431104 C202.383739,208.053889 165.399209,245.038419 119.776423,245.038419 C74.1546335,245.038419 37.1701043,208.053889 37.1701043,162.431104 L37.1701043,125.412707 L202.383739,125.412707 L202.383739,162.431104 Z" fill="#FFFFFF"></path>
		<path d="M214.983023,193.26476 L208.614898,193.26476 C211.978758,183.598518 213.831521,173.23002 213.831521,162.432199 L213.831521,159.565398 L214.983023,159.565398 C224.273731,159.565398 231.831209,167.122876 231.831209,176.413584 C231.831209,185.704293 224.273731,193.26476 214.983023,193.26476 M119.775925,233.590238 C80.5391938,233.590238 48.6168903,201.668931 48.6168903,162.432199 L48.6168903,136.861086 L172.662338,136.861086 L190.93496,136.861086 L190.93496,162.432199 C190.93496,180.694861 184.012999,197.368728 172.662338,209.980464 C159.627256,224.463888 140.749995,233.590238 119.775925,233.590238 M214.983023,136.389927 L213.831521,136.389927 L213.831521,125.412806 C213.831521,119.089507 208.707536,113.964526 202.38324,113.964526 L37.1696062,113.964526 C30.8463066,113.964526 25.7213261,119.089507 25.7213261,125.412806 L25.7213261,162.432199 C25.7213261,214.295608 67.9135128,256.487795 119.775925,256.487795 C151.551801,256.487795 179.676937,240.633725 196.712392,216.437242 L214.983023,216.437242 C237.052812,216.437242 255.004688,198.482378 255.004688,176.413584 C255.004688,154.344791 237.052812,136.389927 214.983023,136.389927" fill="#303846"></path>
		<path d="M125.71642,60.9408498 L111.304716,60.9408498 L111.304716,46.5291455 C111.304716,41.7806942 107.455751,37.9317292 102.7073,37.9317292 C97.9598444,37.9317292 94.1108794,41.7806942 94.1108794,46.5291455 L94.1108794,60.9408498 L79.6991751,60.9408498 C74.9507237,60.9408498 71.1017588,64.7898148 71.1017588,69.5382661 C71.1017588,74.2857214 74.9507237,78.1356825 79.6991751,78.1356825 L94.1108794,78.1356825 L94.1108794,92.5463907 C94.1108794,97.294842 97.9598444,101.143807 102.7073,101.143807 C107.455751,101.143807 111.304716,97.294842 111.304716,92.5463907 L111.304716,78.1356825 L125.71642,78.1356825 C130.464872,78.1356825 134.314833,74.2857214 134.314833,69.5382661 C134.314833,64.7898148 130.464872,60.9408498 125.71642,60.9408498" fill="#303846"></path>
		<path d="M175.138665,23.0089214 L160.728953,23.0089214 L160.728953,8.59721712 C160.728953,3.84976187 156.878991,-0.00019922179 152.13054,-0.00019922179 C147.383085,-0.00019922179 143.533124,3.84976187 143.533124,8.59721712 L143.533124,23.0089214 L129.122416,23.0089214 C124.373964,23.0089214 120.524999,26.8578864 120.524999,31.6063377 C120.524999,36.353793 124.373964,40.202758 129.122416,40.202758 L143.533124,40.202758 L143.533124,54.6144623 C143.533124,59.3629136 147.383085,63.2118786 152.13054,63.2118786 C156.878991,63.2118786 160.728953,59.3629136 160.728953,54.6144623 L160.728953,40.202758 L175.138665,40.202758 C179.887116,40.202758 183.737077,36.353793 183.737077,31.6063377 C183.737077,26.8578864 179.887116,23.0089214 175.138665,23.0089214" fill="#303846"></path>
		<path d="M228.827343,291.913612 L11.4484794,291.913612 C5.12517977,291.913612 0.00019922179,286.789628 0.00019922179,280.465332 C0.00019922179,274.141037 5.12517977,269.017052 11.4484794,269.017052 L228.827343,269.017052 C235.152635,269.017052 240.275623,274.141037 240.275623,280.465332 C240.275623,286.789628 235.152635,291.913612 228.827343,291.913612" fill="#303846"></path>
	</g>
</svg>
